!!!COM: Corelli, Arcangelo
!!!OTL: 
!!!ONM: Opus 5, No. 6
!!!OMV: 4
!!!CDT: 1653/2/17/-1713/1/8/
!!!OCY: Italia
**kern	**kern
*clefC	*clefG
*k[f#c#]	*k[f#c#]
*b:	*b:
*M3/2	*M3/2
=1	=1
1.r	2r
.	2a
.	2cc#
=2	=2
2r	1.f#
2F#	.
2A	.
=3	=3
[1.D	2r
.	2b
.	2dd
=4	=4
2D]	1.e#
2C#	.
2BB	.
=5	=5
2AA	2r
1AA#	2cc#
.	2ff#
=6	=6
2r	[1.dd
2F#	.
2B	.
=7	=7
1E#	2dd]
.	4cc#
.	4b
2F#	4a
.	4g#
=8	=8
2BB	4a
.	4b
1C#	1g#
=9	=9
2FF#	1.f#
2f#	.
2f#	.
=10	=10
2f#	2r
[1e	2ccc#
.	2cc#
=11	=11
2e]	1.ff#
2d	.
2d	.
=12	=12
2d	2r
[1c#	2aa
.	2a
=13	=13
2c#]	[1.dd
2B	.
2A	.
=14	=14
2G#	2.dd]
2E	.
.	4ee
2A	4cc#
.	4b
=15	=15
2D	4cc#
.	4dd
2E	1b
2EE	.
=16	=16
1AA	2a
.	[1cc#
2E	.
=17	=17
2F#	2cc#]
2G#	1b#
2GG#	.
=18	=18
1C#	2cc#
.	[1ee
2G#	.
=19	=19
2A	2ee]
2B	1dd#
2BB	.
=20	=20
2E	2.ee
2AA#	.
.	4ff#
2BB	4dd
.	4cc#
=21	=21
2E	4dd
.	4ee
2F#	1cc#
2FF#	.
=22	=22
2BB	2b
2B	4b
.	4cc#
2B	2dd
=23	=23
2B	2cc#
2A#	2f#
2F#	2r
=24	=24
2BB	2r
2f#	4ff#
.	4gg#
2f#	2aa
=25	=25
2f#	2gg#
2e#	2cc#
2c#	2r
=26	=26
1.F#	2r
.	2dd
.	2dd
=27	=27
2r	2dd
2A	[1cc#
2AA	.
=28	=28
1.D	2cc#]
.	2b
.	2b
=29	=29
2r	2b
2F#	[1a
2FF#	.
=30	=30
1.BB	2a]
.	2g
.	2f#
=31	=31
1BB	2e#
.	2c#
2AA	2cc#
=32	=32
2BB	4b
.	4a
1C#	1g#
=33	=33
1F#	1f#
2E	2cc#
=34	=34
1.D	2ff#
.	2.b
.	4cc#
=35	=35
1.C#	1.cc#
==	==
*-	*-
!!!RWG: This file only contains pitch and duration data.
!!!RWG: Transposing instruments are not transposed.
!!!RWG: Durations of rests and tied notes may be interpreted.
!!!RWG: Key is interpreted using the Humdrum key tool.
!!!SCA: 
!!!YOR: 
!!!AGN: violin
!!!AFT: stage1
!!!ENC: F. Bennion
!!!END: 1997/04/15
!!!AST: baroque
!!!YEC: Copyright 1994, Center for Computer Assisted Research in the Humanities
!!!YEM: Rights to all derivative electronic formats reserved.
!!!YEM: Refer to licensing agreement for further details.
!!!YEN: United States of America
!!!EED: W.B. Hewlett
!!!KEY: 3732506129
!!!EMD: Converted from MuseData to Humdrum Aug 9, 1999, by Bret Aarden using muse2kern.
!!!VTS: 2665794251
